X:18
T:The Keel Row
M:2/4
L:1/8
K:G
d>c | B2 G>B | c2 A>c | B2 G>B | A>F D>D |
B2 G>B | c2 A>c | B>G A>F | G2 :: d>c |
B>d d>g | e2 d>c | B2 G>B | A>F D>D |
B>d d>g | e2 d>c | B>G A>F | G2 :|
<end>
<start>
